X:735
%%etbk:tnset id:110,pos:2,rep:3x,ant:
%%etbk:tnset id:485,pos:3,rep:3x,ant:
%%etbk:wsite https://thesession.org/tunes/11921
%%etbk:video src:ytube,cde:frH7A7a00NY,desc:
%%etbk:pldat 2016-02-04T18:43,2016-02-03T15:49,2016-02-02T16:20,2016-02-01T18:34,2016-01-30T14:09,2016-01-28T18:51,2016-01-27T16:48,2016-01-26T15:59,2016-01-25T19:04,2016-01-24T15:01,2016-01-23T14:39,2016-01-21T18:49,2016-01-20T16:02,2016-01-19T16:52,2016-01-18T18:31,2016-01-17T12:10,2016-01-16T14:19,2015-10-17T14:20,2015-10-14T16:28,2015-10-12T18:49,2015-10-06T17:25,2015-09-29T16:43,2015-09-10T17:02,2015-09-07T18:51,2015-09-02T17:17,2015-09-01T17:25,2015-08-31T19:13,2015-08-30T15:30,2015-08-23T15:34,2015-08-19T15:48,2015-08-18T16:26,2015-08-17T18:31,2015-06-17T18:06,2015-06-13T17:32,2015-06-09T17:54,2015-06-06T16:22,2015-06-03T18:12,2015-05-31T15:22,2015-05-25T11:19,2015-05-23T14:32
T: The Queen Of Rangoon
Z: Piano Box Version by Martin Fleischmann
H: Created 2015-05-23 /  Last Modified 2015-08-17
R: reel
M: 4/4
L: 1/8
K: Bmin
A|:"bm"!2!B2!4!e!5!f dB~B2 | !4!eee!2!B !3!d!2!B~B2 | !4!edB!1!A !3!FEED | !2!E!3!F!1!A!2!B !5!ed!2!B2- |
BB!4!e!5!f dz~B2 | e3B dB~B2 | edBA FEED | "f#m"!2!E!3!F!4!A!3!F "bm"!5!B3 :|
c|: "G"!4!d!2!B!1!G!2!F !1!G2 B/c/d | "A"!5!ec!1!A!2!F !4!~A3G | "bm"!2!F2!4!BF !3!A!2!B!2!Bd | !3!cBBd cBBc |
"G"dBGF G2 B/c/d | "A"ecAF ~A3G | "bm"!2!F2!4!B!2!F !4!B2!2!Bd | !3!cdec B3 :|
|"alternative"!2!B2!4!e!2!B dB~B2 | z8 |  z8 |  z8|


